assets/1. F-P/Globe showing americas/Color/Globe.Showing.Americas-color.svg

<svg width="100%" height="100%" viewBox="0 0 32 32" fill="none" xmlns="http://www.w3.org/2000/svg">
<path d="M16 30C23.732 30 30 23.732 30 16C30 8.26801 23.732 2 16 2C8.26801 2 2 8.26801 2 16C2 23.732 8.26801 30 16 30Z" fill="url(#paint0_radial_18_4754)"/>
<path d="M16 30C23.732 30 30 23.732 30 16C30 8.26801 23.732 2 16 2C8.26801 2 2 8.26801 2 16C2 23.732 8.26801 30 16 30Z" fill="url(#paint1_radial_18_4754)"/>
<path d="M16 30C23.732 30 30 23.732 30 16C30 8.26801 23.732 2 16 2C8.26801 2 2 8.26801 2 16C2 23.732 8.26801 30 16 30Z" fill="url(#paint2_radial_18_4754)"/>
<g filter="url(#filter0_f_18_4754)">
<path d="M13.0859 5.04416C12.9905 4.95742 12.9295 4.83666 12.9344 4.69881C12.9444 4.42074 12.716 4.19232 12.4379 4.19232H10.6999C10.2917 4.19232 9.89292 4.02107 9.60612 3.71582C7.56045 4.75901 5.80772 6.29415 4.50281 8.16482H7.09486C8.12772 8.16482 8.96194 8.99905 8.96194 10.0319V10.9952C8.96194 11.7301 9.24995 12.4452 9.75644 12.9815L10.69 13.9647C10.9085 14.1931 11.0276 14.501 11.0276 14.8188V15.2855C11.0276 15.792 11.3454 16.2389 11.8221 16.3978C12.804 16.7339 13.7899 17.055 14.7759 17.3761C15.4469 17.5946 16.118 17.8132 16.7878 18.0364C16.8672 18.0762 16.9566 18.096 17.046 18.096H18.3966C18.6747 18.096 18.8932 18.3145 18.8932 18.5926V18.7118C18.8932 18.9302 18.7144 19.0991 18.5059 19.0991C18.1682 19.0991 17.9001 19.3672 17.9001 19.7049V21.7408C17.9001 22.4658 18.4959 23.0616 19.2209 23.0616C19.5884 23.0616 19.8863 23.3596 19.8863 23.727V27.3519C19.8863 27.7293 20.1843 28.0273 20.5616 28.0273C20.7603 28.0273 20.949 27.9379 21.0781 27.7889L25.567 22.3963C25.7358 22.1877 25.8351 21.9196 25.8351 21.6415V21.2542C25.8351 20.5987 25.3088 20.0723 24.6633 20.0723H24.4249C24.1071 20.0723 23.8489 19.8141 23.8489 19.4963V18.9799C23.8489 18.4337 23.541 17.9371 23.0544 17.6888L22.5678 17.4505C22.101 17.2221 21.5945 17.1029 21.0781 17.1029H18.4761C18.1483 17.1029 17.8901 16.8347 17.8901 16.5169C17.8901 16.2985 17.7114 16.1098 17.483 16.1098H17.3141C17.0956 16.1098 16.907 15.931 16.907 15.7026V15.6132C16.907 15.3351 16.6885 15.1166 16.4104 15.1166C16.1323 15.1166 15.9138 15.3351 15.9138 15.6132V15.7026C15.9138 15.9807 15.6642 16.1297 15.3862 16.1297H14.7916C14.3149 16.1098 13.9276 15.7225 13.9276 15.2458V14.3818C13.9276 13.6866 14.4837 13.1304 15.1789 13.1304H16.1025C16.5494 13.1304 16.907 13.488 16.907 13.9349C16.907 14.0342 16.9864 14.1236 17.0956 14.1236H17.3241C17.6419 14.1236 17.9001 13.8753 17.9001 13.5575C17.9001 13.2794 17.1751 13.0113 17.3241 12.7729L18.2265 10.7461L13.0859 10.6367V5.04416Z" fill="url(#paint3_linear_18_4754)"/>
</g>
<g filter="url(#filter1_ii_18_4754)">
<path fill-rule="evenodd" clip-rule="evenodd" d="M4.51001 8H7.12001C8.16001 8 9.00001 8.84 9.00001 9.88V10.85C9.00001 11.59 9.29001 12.31 9.80001 12.85L10.74 13.84C10.96 14.07 11.08 14.38 11.08 14.7V15.17C11.08 15.68 11.4 16.13 11.88 16.29C13.5415 16.8586 15.2146 17.3848 16.88 17.9399C16.96 17.9799 17.05 17.9999 17.14 17.9999H18.5C18.78 17.9999 19 18.2199 19 18.4999V18.6199C19 18.8399 18.82 19.0099 18.61 19.0099C18.27 19.0099 18 19.2799 18 19.6199V21.6699C18 22.3999 18.6 22.9999 19.33 22.9999C19.7 22.9999 20 23.2999 20 23.6699V27.3199C20 27.6999 20.3 27.9999 20.68 27.9999C20.88 27.9999 21.07 27.9099 21.2 27.7599L25.72 22.3299C25.89 22.1199 25.99 21.8499 25.99 21.5699V21.1799C25.99 20.5199 25.46 19.9899 24.81 19.9899H24.57C24.25 19.9899 23.99 19.7299 23.99 19.4099V18.8899C23.99 18.3399 23.68 17.8399 23.19 17.5899L22.7 17.3499C22.23 17.1199 21.72 16.9999 21.2 16.9999H18.58C18.25 16.9999 17.99 16.7299 17.99 16.4099C17.99 16.1899 17.81 15.9999 17.58 15.9999H17.41C17.19 15.9999 17 15.8199 17 15.5899V15.4999C17 15.2199 16.78 14.9999 16.5 14.9999C16.22 14.9999 16 15.2199 16 15.4999V15.5899C16 15.8699 15.7487 16.02 15.4687 16.02H14.87C14.39 16 14 15.61 14 15.13V14.26C14 13.56 14.56 13 15.26 13H16.19C16.64 13 17 13.36 17 13.81C17 13.91 17.08 14 17.19 14H17.42C17.74 14 18 13.75 18 13.43C18 13.15 18.07 12.88 18.22 12.64L20.86 8.24C20.94 8.09 21.11 8 21.28 8H22.5C22.78 8 23 7.78 23 7.5C23 7.22 22.78 7 22.5 7H21.21C21.08 7 20.95 6.95 20.86 6.85L20.27 6.26C20.09 6.09 20.01 5.85 20 5.61C19.99 5.27 19.71 5 19.37 5H19.19C19.07 5 18.96 4.95 18.88 4.87L18.77 4.76C18.48 4.48 18.67 4 19.07 4H20.51C20.88 4 21.25 4.13 21.54 4.36L25.37 7.42C25.83 7.79 26.4 8 27 8L27.4922 8.00212C25.9406 5.77681 23.7592 4.02332 21.2063 3H15.91C15.35 3 14.84 3.31 14.59 3.81L14.13 4.72C14.05 4.89 13.88 5 13.69 5H13.52C13.25 5 12.99 4.79 13 4.51C13.01 4.23 12.78 4 12.5 4H10.75C10.3389 4 9.93743 3.82757 9.64865 3.5202C7.58881 4.57062 5.82395 6.11638 4.51001 8ZM19 7.5C19 7.78 18.78 8 18.5 8C18.22 8 18 8.22 18 8.5C18 8.78 17.78 9 17.5 9C17.22 9 17 8.78 17 8.5C17 8.22 16.78 8 16.5 8H15.5C15.22 8 15 7.78 15 7.5C15 7.22 15.22 7 15.5 7H16.5C16.78 7 17 6.78 17 6.5C17 6.22 17.22 6 17.5 6C17.78 6 18 6.22 18 6.5C18 6.78 18.22 7 18.5 7C18.78 7 19 7.22 19 7.5Z" fill="url(#paint4_radial_18_4754)"/>
<path fill-rule="evenodd" clip-rule="evenodd" d="M4.51001 8H7.12001C8.16001 8 9.00001 8.84 9.00001 9.88V10.85C9.00001 11.59 9.29001 12.31 9.80001 12.85L10.74 13.84C10.96 14.07 11.08 14.38 11.08 14.7V15.17C11.08 15.68 11.4 16.13 11.88 16.29C13.5415 16.8586 15.2146 17.3848 16.88 17.9399C16.96 17.9799 17.05 17.9999 17.14 17.9999H18.5C18.78 17.9999 19 18.2199 19 18.4999V18.6199C19 18.8399 18.82 19.0099 18.61 19.0099C18.27 19.0099 18 19.2799 18 19.6199V21.6699C18 22.3999 18.6 22.9999 19.33 22.9999C19.7 22.9999 20 23.2999 20 23.6699V27.3199C20 27.6999 20.3 27.9999 20.68 27.9999C20.88 27.9999 21.07 27.9099 21.2 27.7599L25.72 22.3299C25.89 22.1199 25.99 21.8499 25.99 21.5699V21.1799C25.99 20.5199 25.46 19.9899 24.81 19.9899H24.57C24.25 19.9899 23.99 19.7299 23.99 19.4099V18.8899C23.99 18.3399 23.68 17.8399 23.19 17.5899L22.7 17.3499C22.23 17.1199 21.72 16.9999 21.2 16.9999H18.58C18.25 16.9999 17.99 16.7299 17.99 16.4099C17.99 16.1899 17.81 15.9999 17.58 15.9999H17.41C17.19 15.9999 17 15.8199 17 15.5899V15.4999C17 15.2199 16.78 14.9999 16.5 14.9999C16.22 14.9999 16 15.2199 16 15.4999V15.5899C16 15.8699 15.7487 16.02 15.4687 16.02H14.87C14.39 16 14 15.61 14 15.13V14.26C14 13.56 14.56 13 15.26 13H16.19C16.64 13 17 13.36 17 13.81C17 13.91 17.08 14 17.19 14H17.42C17.74 14 18 13.75 18 13.43C18 13.15 18.07 12.88 18.22 12.64L20.86 8.24C20.94 8.09 21.11 8 21.28 8H22.5C22.78 8 23 7.78 23 7.5C23 7.22 22.78 7 22.5 7H21.21C21.08 7 20.95 6.95 20.86 6.85L20.27 6.26C20.09 6.09 20.01 5.85 20 5.61C19.99 5.27 19.71 5 19.37 5H19.19C19.07 5 18.96 4.95 18.88 4.87L18.77 4.76C18.48 4.48 18.67 4 19.07 4H20.51C20.88 4 21.25 4.13 21.54 4.36L25.37 7.42C25.83 7.79 26.4 8 27 8L27.4922 8.00212C25.9406 5.77681 23.7592 4.02332 21.2063 3H15.91C15.35 3 14.84 3.31 14.59 3.81L14.13 4.72C14.05 4.89 13.88 5 13.69 5H13.52C13.25 5 12.99 4.79 13 4.51C13.01 4.23 12.78 4 12.5 4H10.75C10.3389 4 9.93743 3.82757 9.64865 3.5202C7.58881 4.57062 5.82395 6.11638 4.51001 8ZM19 7.5C19 7.78 18.78 8 18.5 8C18.22 8 18 8.22 18 8.5C18 8.78 17.78 9 17.5 9C17.22 9 17 8.78 17 8.5C17 8.22 16.78 8 16.5 8H15.5C15.22 8 15 7.78 15 7.5C15 7.22 15.22 7 15.5 7H16.5C16.78 7 17 6.78 17 6.5C17 6.22 17.22 6 17.5 6C17.78 6 18 6.22 18 6.5C18 6.78 18.22 7 18.5 7C18.78 7 19 7.22 19 7.5Z" fill="url(#paint5_linear_18_4754)"/>
</g>
<path fill-rule="evenodd" clip-rule="evenodd" d="M4.51001 8H7.12001C8.16001 8 9.00001 8.84 9.00001 9.88V10.85C9.00001 11.59 9.29001 12.31 9.80001 12.85L10.74 13.84C10.96 14.07 11.08 14.38 11.08 14.7V15.17C11.08 15.68 11.4 16.13 11.88 16.29C13.5415 16.8586 15.2146 17.3848 16.88 17.9399C16.96 17.9799 17.05 17.9999 17.14 17.9999H18.5C18.78 17.9999 19 18.2199 19 18.4999V18.6199C19 18.8399 18.82 19.0099 18.61 19.0099C18.27 19.0099 18 19.2799 18 19.6199V21.6699C18 22.3999 18.6 22.9999 19.33 22.9999C19.7 22.9999 20 23.2999 20 23.6699V27.3199C20 27.6999 20.3 27.9999 20.68 27.9999C20.88 27.9999 21.07 27.9099 21.2 27.7599L25.72 22.3299C25.89 22.1199 25.99 21.8499 25.99 21.5699V21.1799C25.99 20.5199 25.46 19.9899 24.81 19.9899H24.57C24.25 19.9899 23.99 19.7299 23.99 19.4099V18.8899C23.99 18.3399 23.68 17.8399 23.19 17.5899L22.7 17.3499C22.23 17.1199 21.72 16.9999 21.2 16.9999H18.58C18.25 16.9999 17.99 16.7299 17.99 16.4099C17.99 16.1899 17.81 15.9999 17.58 15.9999H17.41C17.19 15.9999 17 15.8199 17 15.5899V15.4999C17 15.2199 16.78 14.9999 16.5 14.9999C16.22 14.9999 16 15.2199 16 15.4999V15.5899C16 15.8699 15.7487 16.02 15.4687 16.02H14.87C14.39 16 14 15.61 14 15.13V14.26C14 13.56 14.56 13 15.26 13H16.19C16.64 13 17 13.36 17 13.81C17 13.91 17.08 14 17.19 14H17.42C17.74 14 18 13.75 18 13.43C18 13.15 18.07 12.88 18.22 12.64L20.86 8.24C20.94 8.09 21.11 8 21.28 8H22.5C22.78 8 23 7.78 23 7.5C23 7.22 22.78 7 22.5 7H21.21C21.08 7 20.95 6.95 20.86 6.85L20.27 6.26C20.09 6.09 20.01 5.85 20 5.61C19.99 5.27 19.71 5 19.37 5H19.19C19.07 5 18.96 4.95 18.88 4.87L18.77 4.76C18.48 4.48 18.67 4 19.07 4H20.51C20.88 4 21.25 4.13 21.54 4.36L25.37 7.42C25.83 7.79 26.4 8 27 8L27.4922 8.00212C25.9406 5.77681 23.7592 4.02332 21.2063 3H15.91C15.35 3 14.84 3.31 14.59 3.81L14.13 4.72C14.05 4.89 13.88 5 13.69 5H13.52C13.25 5 12.99 4.79 13 4.51C13.01 4.23 12.78 4 12.5 4H10.75C10.3389 4 9.93743 3.82757 9.64865 3.5202C7.58881 4.57062 5.82395 6.11638 4.51001 8ZM19 7.5C19 7.78 18.78 8 18.5 8C18.22 8 18 8.22 18 8.5C18 8.78 17.78 9 17.5 9C17.22 9 17 8.78 17 8.5C17 8.22 16.78 8 16.5 8H15.5C15.22 8 15 7.78 15 7.5C15 7.22 15.22 7 15.5 7H16.5C16.78 7 17 6.78 17 6.5C17 6.22 17.22 6 17.5 6C17.78 6 18 6.22 18 6.5C18 6.78 18.22 7 18.5 7C18.78 7 19 7.22 19 7.5Z" fill="url(#paint6_linear_18_4754)"/>
<defs>
<filter id="filter0_f_18_4754" x="4.35281" y="3.56582" width="21.6324" height="24.6115" filterUnits="userSpaceOnUse" color-interpolation-filters="sRGB">
<feFlood flood-opacity="0" result="BackgroundImageFix"/>
<feBlend mode="normal" in="SourceGraphic" in2="BackgroundImageFix" result="shape"/>
<feGaussianBlur stdDeviation="0.075" result="effect1_foregroundBlur_18_4754"/>
</filter>
<filter id="filter1_ii_18_4754" x="4.41001" y="2.9" width="23.1822" height="25.2" filterUnits="userSpaceOnUse" color-interpolation-filters="sRGB">
<feFlood flood-opacity="0" result="BackgroundImageFix"/>
<feBlend mode="normal" in="SourceGraphic" in2="BackgroundImageFix" result="shape"/>
<feColorMatrix in="SourceAlpha" type="matrix" values="0 0 0 0 0 0 0 0 0 0 0 0 0 0 0 0 0 0 127 0" result="hardAlpha"/>
<feOffset dx="-0.1" dy="0.1"/>
<feGaussianBlur stdDeviation="0.05"/>
<feComposite in2="hardAlpha" operator="arithmetic" k2="-1" k3="1"/>
<feColorMatrix type="matrix" values="0 0 0 0 0.403922 0 0 0 0 0.917647 0 0 0 0 0.682353 0 0 0 1 0"/>
<feBlend mode="normal" in2="shape" result="effect1_innerShadow_18_4754"/>
<feColorMatrix in="SourceAlpha" type="matrix" values="0 0 0 0 0 0 0 0 0 0 0 0 0 0 0 0 0 0 127 0" result="hardAlpha"/>
<feOffset dx="0.1" dy="-0.1"/>
<feGaussianBlur stdDeviation="0.05"/>
<feComposite in2="hardAlpha" operator="arithmetic" k2="-1" k3="1"/>
<feColorMatrix type="matrix" values="0 0 0 0 0.239216 0 0 0 0 0.560784 0 0 0 0 0.513726 0 0 0 1 0"/>
<feBlend mode="normal" in2="effect1_innerShadow_18_4754" result="effect2_innerShadow_18_4754"/>
</filter>
<radialGradient id="paint0_radial_18_4754" cx="0" cy="0" r="1" gradientUnits="userSpaceOnUse" gradientTransform="translate(25.6533 10.4768) rotate(126.543) scale(23.7179 26.88)">
<stop stop-color="#63D8FF"/>
<stop offset="1" stop-color="#3488EF"/>
</radialGradient>
<radialGradient id="paint1_radial_18_4754" cx="0" cy="0" r="1" gradientUnits="userSpaceOnUse" gradientTransform="translate(25.7544 9.61918) rotate(137.749) scale(26.0707 34.5063)">
<stop offset="0.493554" stop-color="#465DC2" stop-opacity="0"/>
<stop offset="1" stop-color="#465DC2"/>
</radialGradient>
<radialGradient id="paint2_radial_18_4754" cx="0" cy="0" r="1" gradientUnits="userSpaceOnUse" gradientTransform="translate(16 14.0691) rotate(90) scale(16.7059 16.7059)">
<stop offset="0.868421" stop-color="#606AC7" stop-opacity="0"/>
<stop offset="1" stop-color="#606AC7"/>
</radialGradient>
<linearGradient id="paint3_linear_18_4754" x1="15.9149" y1="3.19919" x2="15.9149" y2="28.0273" gradientUnits="userSpaceOnUse">
<stop stop-color="#2C699B"/>
<stop offset="1" stop-color="#316CCA"/>
</linearGradient>
<radialGradient id="paint4_radial_18_4754" cx="0" cy="0" r="1" gradientUnits="userSpaceOnUse" gradientTransform="translate(25.8235 6.74198) rotate(127.798) scale(19.0091 20.2884)">
<stop offset="0.418371" stop-color="#6FFCAA"/>
<stop offset="1" stop-color="#4EBA8B"/>
</radialGradient>
<linearGradient id="paint5_linear_18_4754" x1="19.0825" y1="29.8958" x2="20.2549" y2="22.4221" gradientUnits="userSpaceOnUse">
<stop stop-color="#479786"/>
<stop offset="1" stop-color="#479786" stop-opacity="0"/>
</linearGradient>
<linearGradient id="paint6_linear_18_4754" x1="23.625" y1="5.99999" x2="20.125" y2="9.53124" gradientUnits="userSpaceOnUse">
<stop stop-color="#77FFB5"/>
<stop offset="1" stop-color="#77FFB5" stop-opacity="0"/>
</linearGradient>
</defs>
</svg>

<svg width="100%" height="100%" viewBox="0 0 32 32" xmlns="http://www.w3.org/2000/svg"><path fill="url(#a)" d="M16 30c7.732 0 14-6.268 14-14S23.732 2 16 2 2 8.268 2 16s6.268 14 14 14"/><path fill="url(#b)" d="M16 30c7.732 0 14-6.268 14-14S23.732 2 16 2 2 8.268 2 16s6.268 14 14 14"/><path fill="url(#c)" d="M16 30c7.732 0 14-6.268 14-14S23.732 2 16 2 2 8.268 2 16s6.268 14 14 14"/><g filter="url(#d)"><path fill="url(#e)" d="M13.086 5.044a.44.44 0 0 1-.152-.345.494.494 0 0 0-.496-.507H10.7c-.408 0-.807-.17-1.094-.476a13.97 13.97 0 0 0-5.103 4.449h2.592c1.033 0 1.867.834 1.867 1.867v.963c0 .735.288 1.45.794 1.987l.934.983c.219.228.338.536.338.854v.466c0 .507.317.954.794 1.113.982.336 1.968.657 2.954.978q1.006.327 2.012.66c.08.04.169.06.258.06h1.35c.279 0 .497.218.497.497v.119a.39.39 0 0 1-.387.387.6.6 0 0 0-.606.606v2.036c0 .725.596 1.32 1.32 1.32.368 0 .666.299.666.666v3.625a.67.67 0 0 0 .676.675c.198 0 .387-.09.516-.238l4.489-5.393c.169-.208.268-.476.268-.755v-.387c0-.655-.526-1.182-1.172-1.182h-.238a.576.576 0 0 1-.576-.576v-.516a1.45 1.45 0 0 0-.795-1.291l-.486-.238a3.4 3.4 0 0 0-1.49-.348h-2.602a.587.587 0 0 1-.586-.586.41.41 0 0 0-.407-.407h-.169a.41.41 0 0 1-.407-.407v-.09a.49.49 0 0 0-.497-.496.49.49 0 0 0-.496.496v.09c0 .278-.25.427-.528.427h-.594a.895.895 0 0 1-.864-.884v-.864c0-.695.556-1.252 1.25-1.252h.924c.447 0 .805.358.805.805 0 .1.08.189.189.189h.228a.57.57 0 0 0 .576-.567c0-.278-.725-.546-.576-.784l.902-2.027-5.14-.11z"/></g><g fill-rule="evenodd" clip-rule="evenodd" filter="url(#f)"><path fill="url(#g)" d="M4.51 8h2.61C8.16 8 9 8.84 9 9.88v.97c0 .74.29 1.46.8 2l.94.99c.22.23.34.54.34.86v.47c0 .51.32.96.8 1.12 1.661.569 3.335 1.095 5 1.65.08.04.17.06.26.06h1.36c.28 0 .5.22.5.5v.12c0 .22-.18.39-.39.39-.34 0-.61.27-.61.61v2.05c0 .73.6 1.33 1.33 1.33.37 0 .67.3.67.67v3.65c0 .38.3.68.68.68.2 0 .39-.09.52-.24l4.52-5.43c.17-.21.27-.48.27-.76v-.39c0-.66-.53-1.19-1.18-1.19h-.24a.58.58 0 0 1-.58-.58v-.52c0-.55-.31-1.05-.8-1.3l-.49-.24c-.47-.23-.98-.35-1.5-.35h-2.62c-.33 0-.59-.27-.59-.59 0-.22-.18-.41-.41-.41h-.17c-.22 0-.41-.18-.41-.41v-.09c0-.28-.22-.5-.5-.5s-.5.22-.5.5v.09c0 .28-.251.43-.531.43h-.599a.9.9 0 0 1-.87-.89v-.87c0-.7.56-1.26 1.26-1.26h.93c.45 0 .81.36.81.81 0 .1.08.19.19.19h.23c.32 0 .58-.25.58-.57 0-.28.07-.55.22-.79l2.64-4.4c.08-.15.25-.24.42-.24h1.22c.28 0 .5-.22.5-.5s-.22-.5-.5-.5h-1.29a.47.47 0 0 1-.35-.15l-.59-.59a.93.93 0 0 1-.27-.65.63.63 0 0 0-.63-.61h-.18c-.12 0-.23-.05-.31-.13l-.11-.11c-.29-.28-.1-.76.3-.76h1.44c.37 0 .74.13 1.03.36l3.83 3.06c.46.37 1.03.58 1.63.58l.492.002A14.05 14.05 0 0 0 21.206 3H15.91c-.56 0-1.07.31-1.32.81l-.46.91c-.08.17-.25.28-.44.28h-.17c-.27 0-.53-.21-.52-.49a.497.497 0 0 0-.5-.51h-1.75c-.411 0-.813-.172-1.101-.48A14.06 14.06 0 0 0 4.51 8M19 7.5c0 .28-.22.5-.5.5s-.5.22-.5.5-.22.5-.5.5-.5-.22-.5-.5-.22-.5-.5-.5h-1c-.28 0-.5-.22-.5-.5s.22-.5.5-.5h1c.28 0 .5-.22.5-.5s.22-.5.5-.5.5.22.5.5.22.5.5.5.5.22.5.5"/><path fill="url(#h)" d="M4.51 8h2.61C8.16 8 9 8.84 9 9.88v.97c0 .74.29 1.46.8 2l.94.99c.22.23.34.54.34.86v.47c0 .51.32.96.8 1.12 1.661.569 3.335 1.095 5 1.65.08.04.17.06.26.06h1.36c.28 0 .5.22.5.5v.12c0 .22-.18.39-.39.39-.34 0-.61.27-.61.61v2.05c0 .73.6 1.33 1.33 1.33.37 0 .67.3.67.67v3.65c0 .38.3.68.68.68.2 0 .39-.09.52-.24l4.52-5.43c.17-.21.27-.48.27-.76v-.39c0-.66-.53-1.19-1.18-1.19h-.24a.58.58 0 0 1-.58-.58v-.52c0-.55-.31-1.05-.8-1.3l-.49-.24c-.47-.23-.98-.35-1.5-.35h-2.62c-.33 0-.59-.27-.59-.59 0-.22-.18-.41-.41-.41h-.17c-.22 0-.41-.18-.41-.41v-.09c0-.28-.22-.5-.5-.5s-.5.22-.5.5v.09c0 .28-.251.43-.531.43h-.599a.9.9 0 0 1-.87-.89v-.87c0-.7.56-1.26 1.26-1.26h.93c.45 0 .81.36.81.81 0 .1.08.19.19.19h.23c.32 0 .58-.25.58-.57 0-.28.07-.55.22-.79l2.64-4.4c.08-.15.25-.24.42-.24h1.22c.28 0 .5-.22.5-.5s-.22-.5-.5-.5h-1.29a.47.47 0 0 1-.35-.15l-.59-.59a.93.93 0 0 1-.27-.65.63.63 0 0 0-.63-.61h-.18c-.12 0-.23-.05-.31-.13l-.11-.11c-.29-.28-.1-.76.3-.76h1.44c.37 0 .74.13 1.03.36l3.83 3.06c.46.37 1.03.58 1.63.58l.492.002A14.05 14.05 0 0 0 21.206 3H15.91c-.56 0-1.07.31-1.32.81l-.46.91c-.08.17-.25.28-.44.28h-.17c-.27 0-.53-.21-.52-.49a.497.497 0 0 0-.5-.51h-1.75c-.411 0-.813-.172-1.101-.48A14.06 14.06 0 0 0 4.51 8M19 7.5c0 .28-.22.5-.5.5s-.5.22-.5.5-.22.5-.5.5-.5-.22-.5-.5-.22-.5-.5-.5h-1c-.28 0-.5-.22-.5-.5s.22-.5.5-.5h1c.28 0 .5-.22.5-.5s.22-.5.5-.5.5.22.5.5.22.5.5.5.5.22.5.5"/></g><path fill="url(#i)" fill-rule="evenodd" d="M4.51 8h2.61C8.16 8 9 8.84 9 9.88v.97c0 .74.29 1.46.8 2l.94.99c.22.23.34.54.34.86v.47c0 .51.32.96.8 1.12 1.661.569 3.335 1.095 5 1.65.08.04.17.06.26.06h1.36c.28 0 .5.22.5.5v.12c0 .22-.18.39-.39.39-.34 0-.61.27-.61.61v2.05c0 .73.6 1.33 1.33 1.33.37 0 .67.3.67.67v3.65c0 .38.3.68.68.68.2 0 .39-.09.52-.24l4.52-5.43c.17-.21.27-.48.27-.76v-.39c0-.66-.53-1.19-1.18-1.19h-.24a.58.58 0 0 1-.58-.58v-.52c0-.55-.31-1.05-.8-1.3l-.49-.24c-.47-.23-.98-.35-1.5-.35h-2.62c-.33 0-.59-.27-.59-.59 0-.22-.18-.41-.41-.41h-.17c-.22 0-.41-.18-.41-.41v-.09c0-.28-.22-.5-.5-.5s-.5.22-.5.5v.09c0 .28-.251.43-.531.43h-.599a.9.9 0 0 1-.87-.89v-.87c0-.7.56-1.26 1.26-1.26h.93c.45 0 .81.36.81.81 0 .1.08.19.19.19h.23c.32 0 .58-.25.58-.57 0-.28.07-.55.22-.79l2.64-4.4c.08-.15.25-.24.42-.24h1.22c.28 0 .5-.22.5-.5s-.22-.5-.5-.5h-1.29a.47.47 0 0 1-.35-.15l-.59-.59a.93.93 0 0 1-.27-.65.63.63 0 0 0-.63-.61h-.18c-.12 0-.23-.05-.31-.13l-.11-.11c-.29-.28-.1-.76.3-.76h1.44c.37 0 .74.13 1.03.36l3.83 3.06c.46.37 1.03.58 1.63.58l.492.002A14.05 14.05 0 0 0 21.206 3H15.91c-.56 0-1.07.31-1.32.81l-.46.91c-.08.17-.25.28-.44.28h-.17c-.27 0-.53-.21-.52-.49a.497.497 0 0 0-.5-.51h-1.75c-.411 0-.813-.172-1.101-.48A14.06 14.06 0 0 0 4.51 8M19 7.5c0 .28-.22.5-.5.5s-.5.22-.5.5-.22.5-.5.5-.5-.22-.5-.5-.22-.5-.5-.5h-1c-.28 0-.5-.22-.5-.5s.22-.5.5-.5h1c.28 0 .5-.22.5-.5s.22-.5.5-.5.5.22.5.5.22.5.5.5.5.22.5.5" clip-rule="evenodd"/><defs><radialGradient id="a" cx="0" cy="0" r="1" gradientTransform="rotate(126.543 10.189 11.698)scale(23.7179 26.88)" gradientUnits="userSpaceOnUse"><stop stop-color="#63D8FF"/><stop offset="1" stop-color="#3488EF"/></radialGradient><radialGradient id="b" cx="0" cy="0" r="1" gradientTransform="matrix(-19.2977 17.52941 -23.20134 -25.54178 25.754 9.62)" gradientUnits="userSpaceOnUse"><stop offset=".494" stop-color="#465DC2" stop-opacity="0"/><stop offset="1" stop-color="#465DC2"/></radialGradient><radialGradient id="c" cx="0" cy="0" r="1" gradientTransform="rotate(90 .965 15.035)scale(16.7059)" gradientUnits="userSpaceOnUse"><stop offset=".868" stop-color="#606AC7" stop-opacity="0"/><stop offset="1" stop-color="#606AC7"/></radialGradient><radialGradient id="g" cx="0" cy="0" r="1" gradientTransform="rotate(127.798 11.26 9.697)scale(19.0091 20.2884)" gradientUnits="userSpaceOnUse"><stop offset=".418" stop-color="#6FFCAA"/><stop offset="1" stop-color="#4EBA8B"/></radialGradient><linearGradient id="e" x1="15.915" x2="15.915" y1="3.199" y2="28.027" gradientUnits="userSpaceOnUse"><stop stop-color="#2C699B"/><stop offset="1" stop-color="#316CCA"/></linearGradient><linearGradient id="h" x1="19.082" x2="20.255" y1="29.896" y2="22.422" gradientUnits="userSpaceOnUse"><stop stop-color="#479786"/><stop offset="1" stop-color="#479786" stop-opacity="0"/></linearGradient><linearGradient id="i" x1="23.625" x2="20.125" y1="6" y2="9.531" gradientUnits="userSpaceOnUse"><stop stop-color="#77FFB5"/><stop offset="1" stop-color="#77FFB5" stop-opacity="0"/></linearGradient><filter id="d" width="21.632" height="24.611" x="4.353" y="3.566" color-interpolation-filters="sRGB" filterUnits="userSpaceOnUse"><feFlood flood-opacity="0" result="BackgroundImageFix"/><feBlend in="SourceGraphic" in2="BackgroundImageFix" result="shape"/><feGaussianBlur result="effect1_foregroundBlur_18_4754" stdDeviation=".075"/></filter><filter id="f" width="23.182" height="25.2" x="4.41" y="2.9" color-interpolation-filters="sRGB" filterUnits="userSpaceOnUse"><feFlood flood-opacity="0" result="BackgroundImageFix"/><feBlend in="SourceGraphic" in2="BackgroundImageFix" result="shape"/><feColorMatrix in="SourceAlpha" result="hardAlpha" values="0 0 0 0 0 0 0 0 0 0 0 0 0 0 0 0 0 0 127 0"/><feOffset dx="-.1" dy=".1"/><feGaussianBlur stdDeviation=".05"/><feComposite in2="hardAlpha" k2="-1" k3="1" operator="arithmetic"/><feColorMatrix values="0 0 0 0 0.403922 0 0 0 0 0.917647 0 0 0 0 0.682353 0 0 0 1 0"/><feBlend in2="shape" result="effect1_innerShadow_18_4754"/><feColorMatrix in="SourceAlpha" result="hardAlpha" values="0 0 0 0 0 0 0 0 0 0 0 0 0 0 0 0 0 0 127 0"/><feOffset dx=".1" dy="-.1"/><feGaussianBlur stdDeviation=".05"/><feComposite in2="hardAlpha" k2="-1" k3="1" operator="arithmetic"/><feColorMatrix values="0 0 0 0 0.239216 0 0 0 0 0.560784 0 0 0 0 0.513726 0 0 0 1 0"/><feBlend in2="effect1_innerShadow_18_4754" result="effect2_innerShadow_18_4754"/></filter></defs></svg>
